build/finance/PalladiumOutline.svg

<svg xmlns="http://www.w3.org/2000/svg" fill="none" viewBox="0 0 24 24" focusable="false"><path d="M0 0H24V24H0z"/><path fill="#74767B" fill-rule="evenodd" d="M5 6.40303L19 6.40303C19.9389 6.40303 20.7 7.16414 20.7 8.10303L20.7 15.8969C20.7 16.8358 19.9389 17.5969 19 17.5969L5 17.5969C4.06112 17.5969 3.3 16.8358 3.3 15.8969L3.3 8.10303C3.3 7.16414 4.06112 6.40303 5 6.40303ZM2 8.10303C2 6.44617 3.34315 5.10303 5 5.10303L19 5.10303C20.6569 5.10303 22 6.44617 22 8.10303L22 15.8969C22 17.5538 20.6569 18.8969 19 18.8969L5 18.8969C3.34315 18.8969 2 17.5538 2 15.8969L2 8.10303ZM5.99909 12.9541L5.99909 15.3746C5.99909 15.7336 6.2901 16.0246 6.64909 16.0246C7.00807 16.0246 7.29909 15.7336 7.29909 15.3746L7.29909 13.5948L9.21061 13.5948C10.7624 13.5948 12.0204 12.3369 12.0204 10.7851C12.0204 9.23333 10.7624 7.97537 9.21063 7.97536L7.3491 7.97534C6.60351 7.97534 5.99909 8.57975 5.99909 9.32534L5.99909 12.9356L5.99902 12.9448L5.99909 12.9541ZM7.29909 12.2948L7.29909 9.32534C7.29909 9.29773 7.32147 9.27534 7.34909 9.27534L9.21062 9.27535C10.0444 9.27536 10.7204 9.9513 10.7204 10.7851C10.7204 11.6189 10.0444 12.2948 9.21061 12.2948L7.29909 12.2948ZM18.0006 11.6432L18.0006 8.6254C18.0006 8.26642 17.7095 7.9754 17.3506 7.9754C16.9916 7.9754 16.7006 8.26642 16.7006 8.6254L16.7006 11.0025L15.4974 11.0025C14.1106 11.0025 12.9863 12.1267 12.9863 13.5136C12.9863 14.9004 14.1105 16.0247 15.4974 16.0247L16.6506 16.0247C17.3961 16.0247 18.0006 15.4203 18.0006 14.6747L18.0006 11.6617L18.0006 11.6525L18.0006 11.6432ZM16.7006 12.3025L16.7006 14.6747C16.7006 14.7023 16.6782 14.7247 16.6506 14.7247L15.4974 14.7247C14.8285 14.7247 14.2863 14.1824 14.2863 13.5136C14.2863 12.8447 14.8285 12.3025 15.4974 12.3025L16.7006 12.3025Z"/></svg>

<svg xmlns="http://www.w3.org/2000/svg" fill="none" viewBox="0 0 24 24" focusable="false"><path fill="#74767B" fill-rule="evenodd" d="M5 6.4h14c.93 0 1.7.76 1.7 1.7v7.79c0 .94-.77 1.7-1.7 1.7H5c-.94 0-1.7-.76-1.7-1.7V8.1c0-.94.76-1.7 1.7-1.7M2 8.1c0-1.66 1.34-3 3-3h14c1.65 0 3 1.34 3 3v7.79c0 1.66-1.35 3-3 3H5c-1.66 0-3-1.34-3-3zm3.99 4.85v2.42c0 .36.3.65.65.65.36 0 .65-.29.65-.65v-1.78h1.92c1.55 0 2.81-1.26 2.81-2.81s-1.26-2.81-2.81-2.81H7.34c-.74 0-1.35.6-1.35 1.35v3.63m1.3-.66V9.32c0-.03.03-.05.05-.05h1.87c.83 0 1.51.68 1.51 1.51s-.68 1.51-1.51 1.51zM18 11.64V8.62c0-.36-.3-.65-.65-.65-.36 0-.65.29-.65.65V11h-1.21c-1.38 0-2.51 1.12-2.51 2.51s1.13 2.51 2.51 2.51h1.16c.74 0 1.35-.6 1.35-1.35v-3.03m-1.3.66v2.37c0 .03-.03.05-.05.05h-1.16c-.67 0-1.21-.54-1.21-1.21s.54-1.21 1.21-1.21z"/></svg>
